lib/assets/icons/svg/outlined-action-order.svg

<svg xmlns="http://www.w3.org/2000/svg" viewBox="0 0 24 24"><path d="M16.009 9.205a.481.481 0 0 1-.36-.16l-3.64-3.76-3.64 3.76a.5.5 0 1 1-.72-.69l4-4.14a.53.53 0 0 1 .72 0l4 4.14a.5.5 0 0 1 0 .71.545.545 0 0 1-.36.14zm-4 10.72a.468.468 0 0 1-.35-.15l-4-4a.5.5 0 0 1 .7-.71l3.65 3.65 3.65-3.65a.5.5 0 0 1 .7.71l-4 4a.468.468 0 0 1-.35.15z"/></svg>

<svg viewBox="0 0 24 24" xmlns="http://www.w3.org/2000/svg">
  <path  d="M 16.009 9.205 C 15.872 9.206 15.741 9.147 15.649 9.045 L 12.009 5.285 L 8.369 9.045 C 8.124 9.342 7.65 9.262 7.515 8.902 C 7.443 8.709 7.496 8.492 7.649 8.355 L 11.649 4.215 C 11.852 4.027 12.166 4.027 12.369 4.215 L 16.369 8.355 C 16.566 8.551 16.566 8.869 16.369 9.065 C 16.27 9.154 16.142 9.204 16.009 9.205 Z M 12.009 19.925 C 11.876 19.927 11.749 19.872 11.659 19.775 L 7.659 15.775 C 7.462 15.579 7.462 15.261 7.659 15.065 C 7.853 14.874 8.165 14.874 8.359 15.065 L 12.009 18.715 L 15.659 15.065 C 15.853 14.874 16.165 14.874 16.359 15.065 C 16.556 15.261 16.556 15.579 16.359 15.775 L 12.359 19.775 C 12.269 19.872 12.142 19.927 12.009 19.925 Z"/>
</svg>
